; generated by PrusaSlicer 2.8.0+win64 on 2024-10-01 at 20:46:57 UTC


;
;
; 

; external perimeters extrusion width = 0.60mm
; perimeters extrusion width = 0.63mm
; infill extrusion width = 0.63mm
; solid infill extrusion width = 0.63mm
; top infill extrusion width = 0.40mm
; support material extrusion width = 0.36mm
; first layer extrusion width = 0.60mm


EXCLUDE_OBJECT_DEFINE NAME='zange_mit_pins_asm' CENTER=104.999,111.514 POLYGON=[[105.254,90.789],[106.912,90.876],[108.179,91.033],[110.672,91.579],[113.079,92.427],[115.364,93.565],[117.491,94.974],[119.429,96.635],[121.148,98.521],[122.666,100.674],[123.857,102.911],[124.766,105.276],[125.379,107.734],[125.688,110.239],[125.692,112.717],[125.414,115.106],[124.861,117.446],[124.040,119.706],[125.632,119.794],[126.148,119.950],[126.867,120.319],[127.489,120.837],[127.834,121.251],[128.230,121.956],[128.463,122.730],[128.522,123.267],[128.463,124.073],[128.115,125.092],[127.489,125.967],[126.637,126.625],[125.893,126.941],[125.098,127.088],[118.667,127.098],[116.976,128.432],[115.054,129.640],[113.079,130.603],[111.283,131.267],[109.434,131.762],[107.271,132.117],[105.000,132.242],[102.853,132.131],[100.359,131.716],[98.111,131.064],[96.181,130.273],[93.959,129.057],[91.901,127.578],[90.120,125.944],[88.788,124.430],[87.334,122.355],[86.143,120.119],[85.234,117.754],[84.621,115.296],[84.312,112.791],[84.308,110.313],[84.586,107.924],[85.139,105.584],[85.960,103.324],[84.634,103.285],[83.852,103.080],[82.913,102.553],[82.166,101.778],[81.674,100.821],[81.478,99.763],[81.596,98.693],[82.017,97.703],[82.511,97.063],[83.133,96.546],[83.603,96.281],[84.368,96.020],[85.172,95.932],[91.333,95.932],[92.814,94.748],[94.398,93.704],[96.070,92.810],[97.817,92.072],[99.625,91.497],[101.477,91.089],[103.359,90.853]]

;TYPE:Custom
M117
VARIABLES EXTRUDER=230 BED=75
G21 ; set units to millimeters
G90 ; use absolute coordinates
M83 ; use relative distances for extrusion
; Filament gcode
SET_SKEW XY=100.38,100.35,70.73
M107
;LAYER_CHANGE
;Z:0.28
;HEIGHT:0.28
G1 E-3 F3600
G1 Z.78 F9000
EXCLUDE_OBJECT_START NAME='zange_mit_pins_asm'
G1 X125.34 Y88.093
G1 Z.28
G1 E3 F2400
M204 S500
;TYPE:Support material
;WIDTH:0.6
G1 F5159.576
G3 X122.222 Y99.944 I-.28 J6.262 E1.4052
G2 X118.783 Y94.529 I-5.48 J-.32 E.43058
G3 X125.259 Y88.089 I6.232 J-.209 E.64411
G1 X125.259 Y88.089 F9000
G1 X130.796 Y96.159
G1 F5159.576
G1 X130.796 Y93.747 E.1516
G2 X130.196 Y91.722 I-5.042 J.392 E.13373
G1 X130.196 Y96.98 E.33047
G1 X129.596 Y97.922 E.0702
G1 X129.596 Y90.779 E.44895
G1 X128.996 Y90.13 E.05555
G1 X128.996 Y98.571 E.53053
G1 X128.396 Y99.065 E.04885
G1 X128.396 Y89.637 E.59256
G1 X127.796 Y89.241 E.04518
G1 X127.796 Y99.461 E.64234
G1 X127.196 Y99.717 E.041
G1 X127.196 Y88.985 E.67452
G1 X126.596 Y88.777 E.03991
G1 X126.596 Y99.925 E.70067
G1 X125.997 Y100.062 E.03862
G1 X125.997 Y88.64 E.71789
G1 X125.397 Y88.582 E.03789
G1 X125.397 Y100.12 E.72518
G1 X124.797 Y100.147 E.03775
G1 X124.797 Y88.555 E.72857
G1 X124.197 Y88.635 E.03804
G1 X124.197 Y100.067 E.71852
G1 X123.597 Y99.955 E.03836
G1 X123.597 Y88.746 E.7045
G1 X122.997 Y88.941 E.03965
G1 X122.997 Y99.76 E.67999
G3 X122.713 Y99.368 I-.03 J-.277 E.03684
G2 X122.397 Y97.693 I-6.056 J.276 E.10749
G1 X122.397 Y89.215 E.53285
G1 X121.797 Y89.552 E.04325
G1 X121.797 Y96.44 E.43292
G1 X121.197 Y95.646 E.06255
G1 X121.197 Y90.03 E.35297
G1 X120.597 Y90.662 E.05477
G1 X120.597 Y95.061 E.27648
G1 X119.998 Y94.613 E.04701
G1 X119.998 Y91.537 E.19333
G2 X119.398 Y93.124 I4.074 J2.448 E.10721
G1 X119.398 Y94.546 E.08937
G1 E-2.1 F3600
;WIPE_START
G1 F7200
G1 X119.398 Y93.124 E-.67545
G3 X119.506 Y92.664 I4.675 J.859 E-.22455
;WIPE_END
G1 Z.78 F9000
G1 X118.655 Y105.279
G1 Z.28
G1 E3 F2400
G1 F5159.576
G3 X110.641 Y112.915 I-1.953 J5.974 E1.6311
G1 X110.205 Y112.934 E.02743
G3 X106.143 Y117.906 I-6.33 J-1.026 E.42263
G1 X101.775 Y117.906 E.27453
G3 X97.957 Y113.871 I2.14 J-5.849 E.36189
G3 X93.924 Y117.906 I-6.231 J-2.194 E.37076
G2 X91.48 Y118.206 I-.459 J6.367 E.15574
G3 X97.331 Y108.719 I.459 J-6.264 E1.61865
G1 X97.992 Y110.092 E.09577
G3 X110.018 Y110.444 I5.962 J1.919 E1.01444
G1 X110.496 Y110.422 E.03007
G3 X115.345 Y105.124 I6.234 J.837 E.48042
G1 X116.786 Y105.123 E.09057
G3 X118.576 Y105.261 I.603 J3.879 E.11384
G1 X118.576 Y105.261 F9000
G1 X122.397 Y113.293
G1 F5159.576
G1 X122.397 Y110.142 E.19804
G2 X121.797 Y108.503 I-5.827 J1.204 E.1101
G1 X121.797 Y114.018 E.34663
G1 X121.197 Y114.917 E.06793
G1 X121.197 Y107.604 E.45963
G1 X120.597 Y106.981 E.05436
G1 X120.597 Y115.54 E.53794
G1 X119.998 Y116.016 E.04809
G1 X119.998 Y106.506 E.59772
G1 X119.398 Y106.124 E.04471
G1 X119.398 Y116.397 E.64567
G1 X118.798 Y116.653 E.041
G1 X118.798 Y105.868 E.67785
G1 X118.198 Y105.673 E.03965
G1 X118.198 Y116.849 E.70243
G1 X117.598 Y116.986 E.03868
G1 X117.598 Y105.548 E.71889
G1 X116.998 Y105.602 E.03786
G1 X116.998 Y117.032 E.71839
G1 X116.451 Y117.057 E.03442
G1 X116.398 Y117.05 E.00336
G1 X116.398 Y105.61 E.71902
G1 X115.798 Y105.61 E.03771
G1 X115.798 Y116.969 E.71393
G1 X115.198 Y116.845 E.03851
G1 X115.198 Y105.676 E.70199
G1 X114.598 Y105.871 E.03965
G1 X114.598 Y116.65 E.67747
G1 X113.999 Y116.363 E.04175
G1 X113.999 Y106.158 E.6414
G1 X113.399 Y106.511 E.04375
G1 X113.399 Y116.01 E.59702
G1 X112.799 Y115.532 E.04821
G1 X112.799 Y106.99 E.53688
G1 X112.199 Y107.642 E.05569
G1 X112.199 Y114.879 E.45486
G1 X111.599 Y113.971 E.0684
G1 X111.599 Y108.55 E.34072
G2 X110.999 Y110.374 I4.548 J2.507 E.12138
G1 X110.999 Y112.487 E.1328
G1 X110.972 Y112.413 E.00495
G1 X110.399 Y112.439 E.03605
G1 X110.399 Y110.913 E.09591
G1 X109.799 Y110.94 E.03775
G3 X109.199 Y114.459 I-6.602 J.685 E.22716
G1 X109.199 Y109.596 E.30565
G2 X108.599 Y108.587 I-3.688 J1.509 E.07405
G1 X108.599 Y115.468 E.43248
G1 X108 Y116.157 E.05738
G1 X108 Y107.898 E.51909
G1 X107.4 Y107.376 E.04998
G1 X107.4 Y116.679 E.58471
G1 X106.8 Y117.075 E.04518
G1 X106.8 Y106.98 E.63448
G1 X106.2 Y106.702 E.04156
G1 X106.2 Y117.353 E.66943
G1 X105.6 Y117.42 E.03795
G1 X105.6 Y106.475 E.68791
G1 X105 Y106.338 E.03868
G1 X105 Y117.42 E.69652
G1 X104.4 Y117.42 E.03771
G1 X104.4 Y106.263 E.70123
G1 X103.8 Y106.236 E.03775
G1 X103.8 Y117.42 E.70293
G1 X103.2 Y117.42 E.03771
G1 X103.2 Y106.298 E.69903
G1 X102.6 Y106.392 E.03817
G1 X102.6 Y117.42 E.69312
G1 X102 Y117.42 E.03771
G1 X102 Y106.587 E.68087
G1 X101.401 Y106.841 E.04089
G1 X101.401 Y117.214 E.65196
G1 X100.801 Y116.892 E.0428
G1 X100.801 Y107.163 E.61148
G1 X100.201 Y107.631 E.04783
G1 X100.201 Y116.424 E.55265
G1 X99.601 Y115.825 E.05329
G1 X99.601 Y108.23 E.47736
G1 X99.001 Y109.055 E.06412
G1 X99.001 Y115 E.37365
G3 X98.401 Y113.671 I4.412 J-2.791 E.09195
G1 X98.401 Y110.384 E.20659
G1 X98.047 Y111.327 E.06331
G1 X97.801 Y110.816 E.03564
G1 X97.801 Y113.074 E.14192
G1 X97.201 Y114.32 E.08692
G1 X97.201 Y109.57 E.29854
G2 X96.601 Y108.542 I-3.783 J1.518 E.07508
G1 X96.601 Y115.348 E.42777
G1 X96.001 Y116.048 E.05795
G1 X96.001 Y107.842 E.51576
G1 X95.402 Y107.312 E.05027
G1 X95.402 Y116.578 E.58238
G1 X94.802 Y116.974 E.04518
G1 X94.802 Y106.916 E.63216
G1 X94.202 Y106.631 E.04175
G1 X94.202 Y117.259 E.66798
G3 X93.602 Y117.42 I-.549 J-.848 E.03969
G1 X93.602 Y106.399 E.69268
G1 X93.002 Y106.262 E.03868
G1 X93.002 Y117.428 E.7018
G1 X92.402 Y117.482 E.03786
G1 X92.402 Y106.182 E.71022
G1 X91.802 Y106.155 E.03775
G1 X91.802 Y117.603 E.71952
G3 X91.202 Y117.678 I-.424 J-.961 E.03855
G1 X91.202 Y106.212 E.72065
G1 X90.602 Y106.301 E.03812
G1 X90.602 Y117.589 E.70947
G1 X90.002 Y117.395 E.03963
G1 X90.002 Y106.496 E.68502
G1 X89.403 Y106.743 E.04072
G1 X89.403 Y117.147 E.65391
G1 X88.803 Y116.824 E.04283
G1 X88.803 Y107.066 E.6133
G1 X88.203 Y107.527 E.04756
G1 X88.203 Y116.363 E.55535
G1 X87.603 Y115.774 E.05284
G1 X87.603 Y108.116 E.48132
G1 X87.003 Y108.926 E.06336
G1 X87.003 Y114.964 E.3795
G3 X86.403 Y113.662 I4.178 J-2.715 E.09042
G1 X86.403 Y109.537 E.25926
G1 E-2.1 F3600
;WIPE_START
G1 F7200
G1 X86.403 Y111.432 E-.9
;WIPE_END
G1 Z.78 F9000
G1 X86.816 Y124.32
G1 Z.28
G1 E3 F2400
G1 F5159.576
G1 X87.87 Y124.457 E.0668
G2 X92.56 Y128.851 I5.39 J-1.053 E.43147
G3 X86.735 Y124.317 I-6.028 J1.735 E1.98093
G1 X86.735 Y124.317 F9000
G1 X91.802 Y133.525
G1 F5159.576
G1 X91.802 Y129.2 E.27183
G1 X91.202 Y129.017 E.03943
G1 X91.202 Y133.99 E.31256
G1 X90.602 Y134.688 E.05785
G1 X90.602 Y128.757 E.37277
G1 X90.002 Y128.417 E.04334
G1 X90.002 Y135.216 E.42733
G1 X89.403 Y135.612 E.04513
G1 X89.403 Y127.968 E.48044
G1 X88.803 Y127.384 E.05262
G1 X88.803 Y135.895 E.53493
G1 X88.203 Y136.126 E.04041
G1 X88.203 Y126.59 E.59935
G1 X87.603 Y125.337 E.08732
G1 X87.603 Y136.263 E.68671
G1 X87.003 Y136.343 E.03804
G1 X87.003 Y124.815 E.72455
G1 X86.403 Y124.788 E.03775
G1 X86.403 Y136.369 E.72788
G1 X85.803 Y136.311 E.03789
G1 X85.803 Y124.847 E.72053
G1 X85.203 Y124.936 E.03812
G1 X85.203 Y136.222 E.70934
G1 X84.603 Y136.026 E.03967
G1 X84.603 Y125.131 E.68477
G1 X84.003 Y125.38 E.04083
G1 X84.003 Y135.777 E.65347
G1 X83.404 Y135.454 E.04277
G1 X83.404 Y125.703 E.61286
G1 X82.804 Y126.166 E.04763
G1 X82.804 Y134.992 E.55473
G1 X82.204 Y134.401 E.05293
G1 X82.204 Y126.756 E.4805
G1 X81.604 Y127.57 E.06356
G1 X81.604 Y133.588 E.37824
G3 X81.004 Y132.28 I4.227 J-2.731 E.09076
G1 X81.004 Y128.186 E.25731
G1 E-2.1 F3600
;WIPE_START
G1 F7200
G1 X81.004 Y130.081 E-.9
;WIPE_END
G1 Z.78 F9000
G1 X124.939 Y122.283
G1 Z.28
G1 E3 F2400
;TYPE:Perimeter
;WIDTH:0.599999
G1 F5159.581
G3 X125.696 Y122.679 I-.217 J1.336 E.05463
G3 X125.943 Y123.402 I-1.112 J.783 E.04867
G3 X125.792 Y123.99 I-1.215 J.002 E.03856
G1 X125.519 Y124.292 E.02559
G1 X125.154 Y124.484 E.02592
G1 X124.737 Y124.538 E.02643
G1 X118.619 Y124.538 E.38452
G2 X117.045 Y125.117 I.068 J2.613 E.10731
G3 X98.829 Y128.602 I-12.051 J-13.645 E1.22306
G2 X98.594 Y127.498 I-5.926 J.682 E.07105
G2 X98.011 Y126.494 I-6.915 J3.348 E.07304
G2 X97.085 Y125.654 I-3.968 J3.442 E.07877
G1 X96.119 Y125.118 E.06943
G2 X93.093 Y124.516 I-3.188 J8.115 E.19494
G1 X92.71 Y124.387 E.0254
G1 X92.396 Y124.115 E.02611
G1 X92.183 Y123.723 E.02804
G1 X92.136 Y123.39 E.02114
G1 X92.241 Y122.926 E.0299
G3 X92.795 Y122.377 I1.398 J.857 E.04949
G1 X93.181 Y122.275 E.02509
G1 X124.695 Y122.266 E1.9807
G3 X124.88 Y122.275 I.027 J1.353 E.01165
G1 X124.88 Y122.275 F9000
G1 X124.959 Y121.742
G1 F5159.581
G3 X126.113 Y122.333 I-.246 J1.9 E.08313
G3 X126.483 Y123.402 I-1.597 J1.152 E.07211
G3 X126.366 Y124.055 I-1.705 J.032 E.04196
G1 X126.113 Y124.471 E.0306
G1 X125.75 Y124.795 E.03058
G1 X125.31 Y125.002 E.03056
G1 X124.756 Y125.078 E.03515
G1 X118.619 Y125.078 E.38572
G2 X117.395 Y125.528 I.071 J2.082 E.08337
G3 X98.306 Y128.975 I-12.388 J-14.024 E1.28166
G2 X98.035 Y127.568 I-4.159 J.072 E.09051
G2 X97.408 Y126.63 I-4.263 J2.17 E.07108
G1 X96.807 Y126.116 E.0497
G1 X95.927 Y125.623 E.0634
G2 X93.175 Y125.073 I-2.81 J6.914 E.17744
G1 X92.666 Y124.963 E.03273
G1 X92.27 Y124.743 E.02847
G1 X91.857 Y124.3 E.03807
G1 X91.643 Y123.795 E.03447
G1 X91.596 Y123.37 E.02687
G1 X91.695 Y122.83 E.03451
G1 X91.984 Y122.337 E.03592
G3 X93.141 Y121.735 I1.334 J1.152 E.08397
G1 X124.695 Y121.726 E1.98321
G3 X124.9 Y121.735 I.018 J1.916 E.0129
G1 X124.9 Y121.735 F9000
G1 X124.978 Y121.209
G1 F5159.581
G3 X125.442 Y121.278 I-.594 J5.571 E.02949
G3 X126.322 Y121.772 I-.913 J2.657 E.06377
G1 X126.702 Y122.229 E.03736
G3 X127.023 Y123.402 I-1.915 J1.154 E.07741
G3 X126.926 Y124.087 I-1.927 J.076 E.04372
G1 X126.717 Y124.554 E.03216
G1 X126.305 Y125.049 E.04048
G1 X125.767 Y125.405 E.04055
G3 X124.776 Y125.618 I-1.138 J-2.883 E.064
G1 X118.619 Y125.618 E.38698
G2 X117.745 Y125.939 I.051 J1.487 E.05952
G3 X97.765 Y129.341 I-12.736 J-14.428 E1.34155
G2 X97.55 Y127.806 I-4.198 J-.197 E.09798
G2 X97.034 Y127.019 I-3.724 J1.881 E.05927
G1 X96.528 Y126.579 E.04214
G2 X95.075 Y125.887 I-3.219 J4.89 E.10147
G2 X93.611 Y125.629 I-2.148 J7.906 E.09356
G1 X92.782 Y125.561 E.05228
G1 X92.18 Y125.331 E.0405
G3 X91.468 Y124.686 I1.977 J-2.894 E.06057
G3 X91.087 Y123.804 I3.071 J-1.85 E.06057
G3 X91.121 Y122.924 I2.459 J-.347 E.05564
G1 X91.286 Y122.413 E.03375
G3 X91.931 Y121.637 I2.447 J1.38 E.06377
G1 X92.473 Y121.335 E.039
G1 X93.102 Y121.195 E.0405
G1 X124.694 Y121.186 E1.9856
G3 X124.918 Y121.203 I-.31 J5.594 E.01412
G1 X124.918 Y121.203 F9000
G1 X124.999 Y120.664
G1 F5159.581
G3 X125.607 Y120.762 I-.441 J4.71 E.03873
G3 X126.42 Y121.178 I-.843 J2.644 E.05766
G3 X127.17 Y121.956 I-1.853 J2.54 E.06826
G3 X127.563 Y123.101 I-2.941 J1.647 E.0765
G1 X127.563 Y123.402 E.01892
G3 X127.492 Y124.098 I-2.349 J.114 E.04414
G3 X126.945 Y125.163 I-3.561 J-1.157 E.07557
G3 X125.997 Y125.895 I-2.733 J-2.56 E.0756
G3 X124.796 Y126.158 I-1.401 J-3.529 E.07761
G1 X118.619 Y126.158 E.38823
G2 X118.095 Y126.351 I.085 J1.039 E.03553
G3 X97.978 Y130.007 I-13.089 J-14.848 E1.35042
G1 X97.223 Y129.691 E.05144
G2 X97.154 Y128.37 I-5.842 J-.356 E.08332
G1 X97.037 Y127.991 E.02493
G1 X96.659 Y127.408 E.04367
G1 X96.25 Y127.042 E.0345
G2 X94.279 Y126.253 I-2.833 J4.221 E.13443
G1 X93.229 Y126.156 E.06627
G3 X92.071 Y125.876 I.155 J-3.179 E.07532
G3 X91.272 Y125.28 I1.183 J-2.421 E.06301
G1 X90.921 Y124.848 E.03498
G1 X90.653 Y124.277 E.03964
G3 X90.525 Y123.115 I3.564 J-.98 E.07378
G3 X90.808 Y122.156 I4.946 J.939 E.06295
G3 X91.915 Y121 I2.679 J1.458 E.10179
G3 X93.062 Y120.655 I1.637 J3.363 E.07561
G1 X124.694 Y120.646 E1.98811
G3 X124.939 Y120.659 I-.136 J4.728 E.01542
G1 X124.939 Y120.659 F9000
G1 X125.018 Y120.126
;TYPE:External perimeter
G1 F5159.581
G3 X125.773 Y120.245 I-.501 J5.593 E.04808
G1 X126.441 Y120.529 E.04562
G3 X127.214 Y121.142 I-3.692 J5.456 E.06206
G1 X127.638 Y121.682 E.04315
G1 X127.946 Y122.339 E.04561
G1 X128.103 Y123.042 E.04527
G1 X128.103 Y123.402 E.02263
G1 X128.103 Y123.767 E.02294
G3 X127.748 Y124.91 I-4.263 J-.696 E.07547
G1 X127.361 Y125.51 E.04487
G3 X126.227 Y126.385 I-3.27 J-3.063 E.09041
G1 X125.542 Y126.61 E.04532
G1 X124.815 Y126.698 E.04603
G1 X118.619 Y126.698 E.38943
G1 X118.444 Y126.762 E.01171
G3 X96.965 Y130.185 I-13.447 J-15.278 E1.44219
G3 X96.684 Y129.658 I.296 J-.497 E.03944
G2 X96.59 Y128.301 I-5.005 J-.336 E.08576
G2 X95.972 Y127.504 I-2.063 J.962 E.06392
G2 X94.211 Y126.788 I-2.53 J3.697 E.1204
G2 X92.847 Y126.662 I-1.922 J13.354 E.08613
G3 X91.842 Y126.365 I.627 J-3.97 E.06605
G1 X91.253 Y126.012 E.04316
G3 X90.453 Y125.122 I2.635 J-3.172 E.07548
G3 X89.987 Y123.046 I3.206 J-1.809 E.13566
G3 X90.331 Y121.899 I4.081 J.597 E.07553
G1 X90.731 Y121.294 E.04558
G1 X91.253 Y120.791 E.04556
G3 X92.322 Y120.253 I2.46 J3.555 E.07546
G1 X93.022 Y120.116 E.04483
G1 X124.694 Y120.106 E1.99063
G3 X124.959 Y120.121 I-.177 J5.613 E.01668
G1 E-2.1 F3600
;WIPE_START
G1 F7200
G1 X125.018 Y120.126 E-.02813
G3 X125.773 Y120.245 I-.495 J5.594 E-.36333
G1 X126.441 Y120.529 E-.34479
G3 X126.721 Y120.73 I-3.693 J5.454 E-.16375
;WIPE_END
G1 Z.78 F9000
G1 X125.769 Y123.344
G1 Z.28
G1 E3 F2400
;TYPE:Solid infill
;WIDTH:0.611764
G1 F5049.556
G2 X125.173 Y122.789 I-3.095 J2.725 E.05239
G2 X124.752 Y122.684 I-.429 J.822 E.02813
G1 X124.328 Y122.684 E.02723
G1 X125.427 Y123.783 E.09981
G3 X124.957 Y124.092 I-.566 J-.349 E.0373
G1 X123.548 Y122.684 E.12792
G1 X122.768 Y122.684 E.05009
G1 X124.207 Y124.122 E.13065
G1 X123.426 Y124.122 E.05016
G1 X121.988 Y122.684 E.1306
G1 X121.208 Y122.684 E.05009
G1 X122.646 Y124.122 E.1306
G1 X121.866 Y124.122 E.05009
G1 X120.428 Y122.685 E.13056
G1 X119.648 Y122.685 E.05009
G1 X121.086 Y124.122 E.13056
G1 X120.306 Y124.122 E.05009
G1 X118.868 Y122.685 E.13056
G1 X118.088 Y122.685 E.05009
G1 X119.526 Y124.122 E.13056
G1 X118.745 Y124.122 E.05016
G1 X117.308 Y122.685 E.13051
G1 X116.528 Y122.686 E.05009
G1 X118.029 Y124.186 E.13628
G2 X117.451 Y124.388 I1.013 J3.829 E.03936
G1 X115.748 Y122.686 E.15462
G1 X114.968 Y122.686 E.05009
G1 X116.959 Y124.676 E.18078
G2 X116.52 Y125.018 I1.702 J2.637 E.03579
G1 X114.188 Y122.686 E.2118
G1 X113.408 Y122.686 E.05009
G1 X116.089 Y125.367 E.24349
G1 X115.65 Y125.708 E.0357
G1 X112.628 Y122.686 E.27446
G1 X111.848 Y122.687 E.05009
G1 X115.198 Y126.036 E.30421
